X:1
T:Temptation Rag (Simplified Version)
T:Temptation Rag (Simplified Version)
T:Henry Lodge 
C:Henry Lodge
%%score { ( 1 3 ) | 2 }
L:1/8
Q:1/2=108
M:2/2
K:Eb
V:1 treble nm="Piano" snm="Pno."
V:3 treble 
V:2 treble 
V:1
!f! g'^f'g'd' e'd'e'c' | d'^c'd'=b =c'bc'a | gagf edc=B | !tenuto!c2 z2 z2 z c/4d/4e/4f/4 |: %4
!mf! g^fgd- de=fd | edec- cdec | d^cd=B- B=cdB | c=BcG- G2 z E/4F/4_G/4=G/4 | AGAF- FGAF | %9
 G^FGE- E=FGE |!<(! DE=EF ^FGA=A | B=Bc^c def^f!<)! | g^fgd- de=fd | edec- cdec | d^cd=B- B=cdB | %15
 c=BcG- G2 z E/4F/4_G/4=G/4 | AGAF- FGAF | G^FGE- E=FGE | FGFD- DEFG |1 C4 z2 z c/4d/4e/4f/4 :|2 %20
 C4 z B,EF ||!f! !>!G4 !>!G4 | z ^FGc- cBAG | !>!c4 !>!c4 | z =Bcd- dcAF | %25
 z2 !>![FAe]2 !>![FAd]2 !>![FAc]2 | z [FA=B][FAc][FAd]- [FAd]cAF | %27
 z2 !>![EGd]2 !>![EGc]2 !>![EGB]2 | z [DF=A][DFB][DFc]- [DFc]BF^F | !>!G4 !>!G4 | z ^FGc- cBAG | %31
 !>!c4 !>!c4 | z =Bcd- dcAF | z2 !>![^Fce]2 !>![Fcd]2 !>![Fce]2 | %34
 z [GBf][Geg][GBf]- [GBf][GBe] [EGc]2 | z [DAB][DAc][DAB]- [DAB][DG] F2 | %36
 E!<(! !>!B,2 C DEF^F!<)! | !>!G4 !>!G4 | z ^FGc- cBAG | !>!c4 !>!c4 | z =Bcd- dcAF | %41
 z2 !>![FAe]2 !>![FAd]2 !>![FAc]2 | z [FA=B][FAc][FAd]- [FAd]cAF | %43
 z2 !>![EGd]2 !>![EGc]2 !>![EGB]2 | z [DF=A][DFB][DFc]- [DFc].B.F.^F | !>!G4 !>!G4 | z ^FGc- cBAG | %47
 !>!c4 !>!c4 | z =Bcd- dcAF | z2 !>![^Fce]2 !>![Fcd]2 !>![Fce]2 | %50
 z [GBf][Geg][GBf]- [GBf][GBe] [EGc]2 | z [DAB][DAc][DAB]- [DAB][DG] F2 | %52
 [G,B,E]2 z2 z2 z c/4d/4e/4f/4 ||!f! g^fgd- de=fd | edec- cdec | d^cd=B- B=cdB | %56
 c=BcG- G2 z E/4F/4_G/4=G/4 | AGAF- FGAF | G^FGE- E=FGE |!<(! DE=EF ^FGA=A | B=Bc^c def^f!<)! | %61
 g^fgd- de=fd | edec- cdec | d^cd=B- B=cdB | c=BcG- G2 z E/4F/4_G/4=G/4 | AGAF- FGAF | %66
 G^FGE- E=FGE | FGFD- DEFG | C4 z2 z B,/4C/4^C/4D/4 |:!f! !^!E2 !>![^F=Ae]2- [FAe]2 [EFAc]2 | %70
 z [GB]2 c BGFE | z F2 G FEDC | z [DF]2 G [DF]2 z B,/4C/4^C/4D/4 | %73
 !^!E2 !>![^F=Ae]2- [FAe]2 [EFAc]2 | z [GB]2 c BGFE | z F2 G FEDC |1 z B,CD E2 z B,/4C/4^C/4D/4 :|2 %77
 z B,CD E2 !tenuto![=B,D]2 ||!mf! .C.D.E.C .D.E.F.D | .E.F.G.E .F.G.A.F | %80
 .G{B=B} !tenuto!c2 _B GFEF | G^FGA !tenuto!G3 G,/4A,/4=A,/4=B,/4 | .C.D.E.C .D.E.F.D | %83
 .E.F.G.E .F.G.A.F | .G{B=B} !>!c2 _B GFEF | GFED !tenuto!C2 z2 |!f! cdec defd | efge fgaf | %88
 g{b=b} !>!!tenuto!c'2 _b gfef | g^fga !tenuto!g3 G/4A/4=A/4=B/4 | cdec defd | efge fgaf | %92
 g{b=b} !>!!tenuto!c'2 _b gfef | gfed !tenuto!c2 z B/4c/4_d/4=d/4 || %94
!ff! !^!e2 !>![^f=ae']2- [fae']2 [efac']2 | z [egb]2 [egc'] [egb]gfe | z [=Aef]2 [Aeg] [Adf]edc | %97
 z [Adf]2 [Adg] [Adf]2 z B/4c/4_d/4=d/4 | !^!e2 !>![^f=ae']2- [fae']2 [efac']2 | %99
 z [egb]2 [egc'] [egb]gfe | z [=Aef]2 [Aeg] [Adf]edc | z [AB][Ac][Ad] [Ge]Bef || !>!g4 !>!g4 | %103
 z [^F^f][Gg][c=ec']- [cec'][Bb][Aa][Gg] | !>!c'4 !>!c'4 | z [f=b][fc'][fd']- [fd'][fc'][fa]f | %106
 z2 !>![fae']2 !>![fad']2 !>![fac']2 | z [fa=b][f=ac'][fad']- [fad']c'_af | %108
 z2 !>![egd']2 !>![egc']2 !>![egb]2 | z [df=a][dfb][dfc']- [dfc']bf^f | %110
 z [Bg]2 [Bg] z [=Bf]2 [Bf] | z [^F^f][Gg][c=ec']- [cec'][Bb][Aa][Gg] | %112
 z [ea]2 [ea] z [=eb]2 [eb] | z [f=b][fc'][fd']- [fd'][fc'][fa]f | %114
 z2 !>![e^fe']2 !>![dfd']2 !>![efe']2 | z [bf'][bg'][bd'f']- [bd'f'][ge'] [gc']2 | %116
 z [dab][dac'][dfb]- [dfb][Bg] [Af]2 | [Ge]4!sfz! !^![egbe']2 z2 |] %118
V:2
 g^fgd edec | d^cd=B =cBcA |[K:bass] .[CEG]2 z2 !tenuto![G,=B,F]2 z2 | %3
 .C,2 .G,,2 !tenuto!C,,2 z2 |: .D,2 .[F,=B,]2 .G,,2 .[F,B,]2 | .C,2 .[G,C]2 .G,,2 .[G,C]2 | %6
 .=B,,2 .[F,=B,]2 .G,,2 .[F,B,]2 | .C,2 .[E,G,]2 .E,,2 .[E,G,]2 | .F,,2 .[F,A,]2 .D,,2 .[F,A,]2 | %9
 .E,,2 .[C,E,]2 .C,,2 .[C,E,]2 | !arpeggio![G,,=B,,F,]3 =A, B,=B,C^C | DE=EF ^FGA=A | %12
 .D,2 .[F,=B,D]2 .G,,2 .[F,B,D]2 | .C,2 .[E,G,C]2 .G,,2 .[E,G,C]2 | %14
 .=B,,2 .[F,=B,D]2 .G,,2 .[F,B,D]2 | .C,2 .[E,G,C]2 .E,,2 .[E,G,C]2 | %16
 .F,,2 .[F,A,C]2 .D,,2 .[F,A,C]2 | .E,,2 .[C,E,C]2 .C,,2 .[C,E,C]2 | %18
 .D,,2 .[D,F,=B,]2 .G,,2 .[D,F,B,]2 |1 .C,2 .G,,2 !tenuto!C,,2 z2 :|2 .C,2 .G,,2 !tenuto!C,,2 z2 || %21
 !>![E,,E,]2 z2 !>![D,,D,]2 z2 | .[C,,C,]2 .[=E,B,]2 .[G,,G,]2 .[E,B,]2 | %23
 !>![A,,A,]2 z2 !>![G,,G,]2 z2 | .[F,,F,]2 .[F,A,]2 .C,,2 .[F,A,]2 | .F,,2 .F,2 .B,,,2 .B,,2 | %26
 .F,,2 .F,2 .B,,2 .F,2 | .E,2 .B,2 .B,,2 .B,2 | .D,2 .F,2 .B,,2 .F,2 | %29
 !>![E,,E,]2 z2 !>![D,,D,]2 z2 | .[C,,C,]2 .[=E,B,]2 .[G,,G,]2 .[E,B,]2 | %31
 !>![A,,A,]2 z2 !>![G,,G,]2 z2 | .[F,,F,]2 .[F,A,]2 .C,,2 .[F,A,]2 | %33
 .=A,,,2 .[^F,,E,]2 .A,,,2 .[F,,E,]2 | .B,,,2 .[E,G,]2 .E,,2 .[E,G,]2 | %35
 .F,,2 .[D,A,]2 .B,,,2 .[D,A,]2 | E, !>!B,,2 C, D,E,F,^F, | !>![E,,E,]4 !>![D,,D,]4 | %38
 .[C,,C,]2 .[=E,B,]2 .[G,,G,]2 .[E,B,]2 | !>![A,,A,]4 !>![G,,G,]4 | %40
 .[F,,F,]2 .[F,A,]2 .C,,2 .[F,A,]2 | [F,,F,]4 [B,,,B,,]4 | [F,,F,]4 [B,,,B,,]4 | %43
 [E,,E,]4 [B,,,B,,]4 | [F,,F,]4 [B,,,B,,]4 | !>![E,,E,]4 !>![D,,D,]4 | %46
 .[C,,C,]2 .[=E,B,]2 .[G,,G,]2 .[E,B,]2 | !>![A,,A,]4 !>![G,,G,]4 | %48
 .[F,,F,]2 .[F,A,]2 .C,,2 .[F,A,]2 | [=A,,,=A,,]4 [A,,,A,,]4 | [B,,,B,,]4 [G,,G,]4 | %51
 [F,,F,]4 [B,,,B,,]4 | .[E,,E,]2 .[B,,,B,,]2 !>![E,,,E,,]4 || .D,2 .[F,=B,]2 .G,,2 .[F,B,]2 | %54
 .C,2 .[G,C]2 .E,2 .[G,C]2 | .=B,,2 .[F,=B,]2 .G,,2 .[F,B,]2 | .C,2 .[G,E]2 .E,2 .[G,E]2 | %57
 .F,,2 .[F,A,]2 .D,,2 .[F,A,]2 | .E,,2 .[C,E,]2 .C,,2 .[C,E,]2 | %59
 !arpeggio![G,,=B,,F,]3 =A, B,=B,C^C | DE=EF ^FGA=A | .D,2 .[F,=B,D]2 .G,,2 .[F,B,D]2 | %62
 .C,2 .[G,CE]2 .E,2 .[G,CE]2 | .=B,,2 .[F,=B,D]2 .G,,2 .[F,B,D]2 | .C,2 .[G,CE]2 .E,2 .[G,CE]2 | %65
 .F,,2 .[F,A,C]2 .D,,2 .[F,A,C]2 | .E,,2 .[C,E,C]2 .C,,2 .[C,E,C]2 | %67
 .D,,2 .[D,F,=B,]2 .G,,2 .[D,F,B,]2 | .C,2 .G,,2 .C,,2 !tenuto!B,,,2 |: %69
 !^!E,,2 !>![E,=A,C]2- [E,A,C]2 [E,A,C]2 | .E,,2 .[G,B,]2 .B,,,2 .[G,B,]2 | %71
 .C,2 .[=A,C]2 .F,,2 .[A,C]2 | .B,,,2 .[A,B,]2 .[A,B,]2 !tenuto!B,,,2 | %73
 !^!E,,2 !>![E,^A,C]2- [E,A,C]2 [E,=A,C]2 | .E,,2 .[G,B,]2 .B,,,2 .[G,B,]2 | %75
 .C,2 .[=A,C]2 .F,,2 .[A,C]2 |1 .B,,,2 .[A,B,]2 .E,,2 !>!!tenuto!B,,,2 :|2 %77
 .B,,,2 .[A,B,]2 .E,,2 !tenuto![G,,F,]2 || .C,2 .[E,G,]2 .=B,,2 .[F,G,]2 | %79
 .C,2 .[E,G,]2 .D,2 .[F,A,]2 | .E,2 [G,C]2- [G,C]2 .[G,C]2 | .D,2 [D,F,=B,]2- [D,F,B,]2 !>!G,,2 | %82
 .C,2 .[E,G,]2 .=B,,2 .[F,G,]2 | .C,2 .[E,G,]2 .D,2 .[F,A,]2 | .E,2 [G,C]2- [G,C]2 .[G,C]2 | %85
 G,,2 [D,F,=B,]2 [C,E,G,]2 !>!G,,2 | .C,,2 .[E,G,]2 .=B,,,2 .[F,G,]2 | %87
 .C,,2 .[E,G,]2 .D,,2 .[F,A,]2 | .E,,2 [G,C]2- [G,C]2 .[G,C]2 | %89
 .D,,2 [D,F,=B,]2- [D,F,B,]2 !>!G,,,2 | .C,,2 .[E,G,]2 .=B,,,2 .[F,G,]2 | %91
 .C,,2 .[E,G,]2 .D,,2 .[F,A,]2 | .E,,2 [G,C]2- [G,C]2 .[G,C]2 | %93
 G,,2 [D,F,=B,]2 [C,E,G,]2 !>!B,,,2 || !^!E,,2 !>![E,=A,C]2- [E,A,C]2 [E,A,C]2 | %95
 .E,,2 .[G,B,]2 .B,,,2 .[G,B,]2 | .F,,2 .[=A,C]2 .F,,2 .[A,C]2 | .B,,,2 .[D,B,]2 .[B,D]2 !>!B,,,2 | %98
 !^!E,,2 !>![E,=A,C]2- [E,A,C]2 [E,A,C]2 | .E,,2 .[G,B,]2 .B,,,2 .[G,B,]2 | %100
 .F,,2 .[=A,C]2 .F,,2 .[A,C]2 | .B,,,2 .[A,B,D]2 [G,B,E]2 z2 || %102
 !>![E,,E,]2 .[E,G,]2 !>![D,,D,]2 .[D,G,]2 | [C,,C,]2 .[=E,B,]2 [B,,,B,,]2 .[E,B,]2 | %104
 !>![A,,,A,,]2 .[E,A,]2 !>![G,,,G,,]2 .[C,=E,]2 | [F,,,F,,]2 .[F,A,]2 [C,,C,]2 .[F,A,]2 | %106
 [F,,,F,,]2 .[F,B,]2 [B,,,B,,]2 .[B,,F,]2 | [F,,,F,,]2 .[F,B,]2 [B,,,B,,]2 .[B,,F,]2 | %108
 [E,,E,]2 .[E,G,]2 [B,,,B,,]2 .[E,G,]2 | F,,2 .[F,B,]2 B,,,2 .[F,A,]2 | %110
 !>![E,,E,]2 .[E,G,]2 !>![D,,D,]2 .[D,G,]2 | [C,,C,]2 .[=E,B,]2 [B,,,B,,]2 .[E,B,]2 | %112
 !>![A,,,A,,]2 .[E,A,]2 !>![G,,,G,,]2 .[C,=E,]2 | [F,,,F,,]2 .[F,A,]2 [C,,C,]2 .[F,A,]2 | %114
 [=A,,,=A,,]2 .[=A,E]2 [A,,,A,,]2 .[A,E]2 | [E,,E,]2 .[E,B,]2 [B,,,B,,]2 .[E,B,]2 | %116
 [F,,F,]2 .[F,B,]2 [B,,,B,,]2 .[F,A,]2 | .[E,,E,]2 .[B,,,B,,]2 !^![E,,,E,,]2 z2 |] %118
V:3
 x8 | x8 | x8 | x8 |: x8 | x8 | x8 | x8 | x8 | x8 | x8 | x8 | x8 | x8 | x8 | x8 | x8 | x8 | x8 |1 %19
 x8 :|2 x8 || z2 .[B,E]2 z2 .[=B,F]2 | x8 | z2 .[EA]2 z2 .[=EB]2 | x8 | x8 | x8 | x8 | x8 | %29
 z2 .[B,E]2 z2 .[=B,F]2 | x8 | z2 .[EA]2 z2 .[=EB]2 | x8 | x8 | x8 | x8 | x8 | %37
 z2 .[B,E]2 z2 .[=B,F]2 | x8 | z2 .[EA]2 z2 .[=EB]2 | x8 | x8 | x8 | x8 | x8 | %45
 z2 .[B,E]2 z2 .[=B,F]2 | x8 | z2 .[EA]2 z2 .[=EB]2 | x8 | x8 | x8 | x8 | x8 || x8 | x8 | x8 | x8 | %57
 x8 | x8 | x8 | x8 | x8 | x8 | x8 | x8 | x8 | x8 | x8 | x8 |: x8 | x8 | x8 | x8 | x8 | x8 | x8 |1 %76
 x8 :|2 x8 || x8 | x8 | x8 | x8 | x8 | x8 | x8 | x8 | x8 | x8 | x8 | x8 | x8 | x8 | x8 | x8 || x8 | %95
 x8 | x8 | x8 | x8 | x8 | x8 | x8 || z [Be][Be][Be] z [=Bf][Bf][Bf] | x8 | %104
 z [ea][ea][ea] z [=eb][eb][eb] | x8 | x8 | x8 | x8 | x8 | !>!G4 !>!G4 | x8 | !>![cc']4 !>![cc']4 | %113
 x8 | x8 | x8 | x8 | x8 |] %118

